build/images/last-section/Vectorls-icon-10.svg

<svg width="86" height="51" viewBox="0 0 86 51" fill="none" xmlns="http://www.w3.org/2000/svg">
<path d="M42.8577 19.329L42.8517 14.9069C46.6369 14.9069 49.6652 12.1159 49.6652 8.66645C49.6652 5.21696 46.6309 2.41992 42.8517 2.41992C39.0724 2.41992 36.0442 5.21696 36.0442 8.66645C36.0426 9.02313 36.075 9.37916 36.1411 9.7297M11.4368 41.7478H30.7569M18.7045 36.519C23.1984 36.519 25.7179 36.519 30.2118 36.519M7.27005 49.4199H78.7361C84.0779 49.4199 86.0039 42.3941 81.4191 39.6756L50.7129 21.4797C48.333 20.0609 45.6122 19.3117 42.8395 19.3117C40.0669 19.3117 37.3461 20.0609 34.9662 21.4797L4.52646 39.6575C0.00229263 42.4182 1.92826 49.4199 7.27005 49.4199Z" stroke="#FFC219" stroke-width="3" stroke-linecap="round" stroke-linejoin="round"/>
</svg>

<svg width="86" height="51" fill="none" xmlns="http://www.w3.org/2000/svg"><path d="M42.858 19.329l-.006-4.422c3.785 0 6.813-2.791 6.813-6.24 0-3.45-3.034-6.247-6.813-6.247-3.78 0-6.808 2.797-6.808 6.246a5.67 5.67 0 0 0 .097 1.064M11.437 41.748h19.32m-12.053-5.229h11.508M7.27 49.419h71.466c5.342 0 7.268-7.025 2.683-9.743L50.713 21.48a15.376 15.376 0 0 0-15.747 0L4.526 39.657C.002 42.419 1.928 49.42 7.27 49.42z" stroke="#FFC219" stroke-width="3" stroke-linecap="round" stroke-linejoin="round"/></svg>
